X:19020
T:Spancil Hill
R:Jig
C:Trad.
O:Ireland
M:6/8
L:1/8
Q:1/8=180
K:Ador
"Am" e2A e2e|"G" d2B G2A|Bdc A2G|"Am" A3- A2e|
"Am" e2a a2b|a2g e2f|"G" g2a gfe|d3- d2e|
"Am" e2a a2b|a2g e2f|"G" g2a gfe|d3- dgf|
"Am" e2A e2e|"G" d2B G2A|BdB A2G|"Am" A3- Az|]

